X: 29389
T: Niamh's
R: reel
M: 4/4
K: Eminor
B2 AB GEEE|DEGE AGGG|B2 AB GEEE|e2 dB AAGA|
B2 AB GEEE|DEGE AGGG|deee edBG|A2 BG AGED:|
DEGE Az (A|A)GAB AGEG|DEGA G2 GA|BedB AGEG|
DEGE Az (A|A)GAB AGED|deee edBG|1 A2 BG AGEG:|2 AdBG A4||

